img/Reward.svg

<svg width="81" height="80" viewBox="0 0 81 80" fill="none" xmlns="http://www.w3.org/2000/svg">
<circle cx="40.5" cy="40" r="40" fill="#FAF4DC"/>
<path fill-rule="evenodd" clip-rule="evenodd" d="M40.1229 24C40.8504 24.0046 41.5215 24.3982 41.8881 25.0354L46.6136 33.2488C46.6201 33.2566 46.6283 33.2658 46.6382 33.2758C46.6611 33.299 46.6867 33.3204 46.7118 33.3377C46.7275 33.3485 46.7401 33.3558 46.7486 33.3602C46.7743 33.3644 46.8 33.3692 46.8256 33.3744L53.985 34.8435C54.7282 34.996 55.3285 35.5504 55.5474 36.2865C55.7663 37.0226 55.5684 37.8211 55.0322 38.3647L48.9808 44.5003C48.9713 44.5098 48.9679 44.5163 48.9679 44.5163C48.9679 44.5163 48.9644 44.5231 48.9618 44.535C48.9572 44.5566 48.9489 44.6229 48.9794 44.7368L51.7793 53.2531C52.0425 54.0538 51.8041 54.9366 51.1752 55.4896C50.5463 56.0427 49.6507 56.1571 48.906 55.7796L40.2124 51.3724C40.1651 51.3484 40.1354 51.3393 40.1223 51.336C40.1101 51.3329 40.1102 51.3335 40.1102 51.3335C40.1102 51.3335 40.1103 51.3329 40.098 51.336C40.0849 51.3393 40.0553 51.3484 40.0079 51.3724L31.3143 55.7796C30.5737 56.1551 29.6833 56.044 29.0546 55.4978C28.4258 54.9516 28.181 54.0765 28.4334 53.277L31.1608 44.6353C31.1751 44.5901 31.1909 44.5453 31.2082 44.5011C31.2044 44.4907 31.1991 44.4785 31.1919 44.4654C31.1795 44.4429 31.1657 44.4254 31.1544 44.4138L25.1029 38.2783C24.5668 37.7347 24.3688 36.9362 24.5877 36.2001C24.8066 35.464 25.4069 34.9096 26.1501 34.7571L33.3095 33.288C33.3502 33.2797 33.3912 33.2726 33.4323 33.2667C33.4496 33.2523 33.4809 33.2219 33.5194 33.168L38.3452 25.0132C38.7195 24.3807 39.3954 23.9955 40.1229 24Z" fill="#F0C10A"/>
</svg>

<svg width="81" height="80" fill="none" xmlns="http://www.w3.org/2000/svg"><circle cx="40.5" cy="40" r="40" fill="#FAF4DC"/><path fill-rule="evenodd" clip-rule="evenodd" d="M40.123 24a2.053 2.053 0 0 1 1.765 1.035l4.726 8.214a.52.52 0 0 0 .135.111l.077.014 7.159 1.47a2.07 2.07 0 0 1 1.562 1.442 2.107 2.107 0 0 1-.515 2.079L48.981 44.5c-.01.01-.013.016-.013.016s-.004.007-.006.019a.451.451 0 0 0 .017.202l2.8 8.516c.263.8.025 1.684-.604 2.237a2.036 2.036 0 0 1-2.269.29l-8.694-4.408a.449.449 0 0 0-.09-.036l-.012-.002-.012.002a.451.451 0 0 0-.09.036l-8.694 4.408a2.036 2.036 0 0 1-2.26-.282 2.105 2.105 0 0 1-.62-2.221l2.727-8.642c.014-.045.03-.09.047-.134a.26.26 0 0 0-.054-.087l-6.051-6.136a2.107 2.107 0 0 1-.515-2.078 2.07 2.07 0 0 1 1.562-1.443l7.16-1.469c.04-.008.081-.015.122-.021a.531.531 0 0 0 .087-.099l4.826-8.155A2.053 2.053 0 0 1 40.123 24z" fill="#F0C10A"/></svg>
